public/icon.svg

<svg width="32" height="32" viewBox="0 0 32 32" fill="none" xmlns="http://www.w3.org/2000/svg">
<rect width="32" height="32" fill="white"/>
<path d="M15.9999 19.5209C25.4574 19.5209 30.455 17.0451 30.8442 16.8429C30.857 16.8352 30.8621 16.8224 30.8672 16.8096C30.8826 16.5433 30.8928 16.2745 30.8928 16.0031C30.8928 15.7317 30.8826 15.4629 30.8672 15.1966C30.8646 15.1838 30.8595 15.1685 30.8442 15.1634C30.455 14.9611 25.4574 12.4854 15.9999 12.4854C6.54233 12.4854 1.54474 14.9585 1.15558 15.1608C1.14278 15.1685 1.13766 15.1813 1.13254 15.1941C1.11717 15.4629 1.10693 15.7292 1.10693 16.0006C1.10693 16.272 1.11717 16.5408 1.13254 16.807C1.1351 16.8198 1.14022 16.8352 1.15558 16.8403C1.54474 17.0426 6.54233 19.5209 15.9999 19.5209Z" fill="url(#paint0_radial)"/>
<path d="M15.9999 6.57324C10.0473 6.57324 5.86643 7.55382 3.48797 8.32957C2.49459 9.78891 1.77516 11.4326 1.40137 13.1966C1.41161 13.2043 1.42697 13.2068 1.43977 13.2017C2.65589 12.6385 7.54083 10.6594 15.9999 10.6594C24.4589 10.6594 29.3439 12.6385 30.56 13.2017C30.5728 13.2068 30.5881 13.2043 30.5984 13.1966C30.2246 11.4326 29.5052 9.79147 28.5118 8.32957C26.1308 7.55382 21.9524 6.57324 15.9999 6.57324Z" fill="url(#paint1_radial)"/>
<path d="M5.42627 25.9727C8.12477 28.5611 11.8653 30.1638 16.0001 30.1638C20.1349 30.1638 23.8754 28.5611 26.5739 25.9727C24.1058 26.5948 20.5803 27.1734 16.0001 27.1734C11.4198 27.1734 7.89434 26.5948 5.42627 25.9727Z" fill="url(#paint2_radial)"/>
<path d="M5.42627 6.02832C8.12477 3.43991 11.8653 1.8372 16.0001 1.8372C20.1349 1.8372 23.8754 3.43991 26.5739 6.02832C24.1058 5.40618 20.5803 4.82756 16.0001 4.82756C11.4198 4.82757 7.89434 5.40618 5.42627 6.02832Z" fill="url(#paint3_radial)"/>
<path d="M15.9999 25.3889C10.0473 25.3889 5.86643 24.4084 3.48797 23.6326C2.49459 22.1733 1.77516 20.5296 1.40137 18.7656C1.41161 18.7579 1.42697 18.7554 1.43977 18.7605C2.65589 19.3237 7.54083 21.3028 15.9999 21.3028C24.4589 21.3028 29.3439 19.3237 30.56 18.7605C30.5728 18.7554 30.5881 18.7579 30.5984 18.7656C30.2246 20.5296 29.5052 22.1707 28.5118 23.6326C26.1308 24.4109 21.9524 25.3889 15.9999 25.3889Z" fill="url(#paint4_radial)"/>
<defs>
<radialGradient id="paint0_radial" cx="0" cy="0" r="1" gradientUnits="userSpaceOnUse" gradientTransform="translate(-7.34187 12.5903) rotate(11.0664) scale(41.3487)">
<stop stop-color="#FEAE6F"/>
<stop offset="0.3156" stop-color="#FF9B73"/>
<stop offset="0.6313" stop-color="#D66F8D"/>
<stop offset="0.8553" stop-color="#8E54A5"/>
<stop offset="0.9909" stop-color="#6050B0"/>
</radialGradient>
<radialGradient id="paint1_radial" cx="0" cy="0" r="1" gradientUnits="userSpaceOnUse" gradientTransform="translate(3.53917 11.1817) rotate(9.14384) scale(37.8607 22.8963)">
<stop offset="0.0206505" stop-color="#FEAE6F"/>
<stop offset="0.496525" stop-color="#D66F8D"/>
<stop offset="0.795468" stop-color="#8E54A5"/>
<stop offset="0.983598" stop-color="#7652AB"/>
</radialGradient>
<radialGradient id="paint2_radial" cx="0" cy="0" r="1" gradientUnits="userSpaceOnUse" gradientTransform="translate(10.675 19.2401) scale(17.7131)">
<stop offset="0.0711" stop-color="#FF9B73"/>
<stop offset="0.2613" stop-color="#F4A575"/>
<stop offset="0.3683" stop-color="#EE977B"/>
<stop offset="0.5696" stop-color="#DF7389"/>
<stop offset="0.6072" stop-color="#DC6B8C"/>
<stop offset="0.6119" stop-color="#DA6B8D"/>
<stop offset="0.731" stop-color="#B06099"/>
<stop offset="0.8388" stop-color="#9259A2"/>
<stop offset="0.9307" stop-color="#8055A7"/>
<stop offset="0.9957" stop-color="#7953A9"/>
</radialGradient>
<radialGradient id="paint3_radial" cx="0" cy="0" r="1" gradientUnits="userSpaceOnUse" gradientTransform="translate(6.22763 11.4381) rotate(1.32452) scale(22.152)">
<stop offset="0.109375" stop-color="#FEAE6F"/>
<stop offset="0.390625" stop-color="#FEAE6F"/>
<stop offset="0.640625" stop-color="#DF7389"/>
<stop offset="0.907479" stop-color="#B56398"/>
<stop offset="0.9957" stop-color="#7852AA"/>
</radialGradient>
<radialGradient id="paint4_radial" cx="0" cy="0" r="1" gradientUnits="userSpaceOnUse" gradientTransform="translate(-14.7666 18.7349) rotate(4.71153) scale(46.7544)">
<stop offset="0.0711" stop-color="#FF9B73"/>
<stop offset="0.390457" stop-color="#F4A575"/>
<stop offset="0.5892" stop-color="#DF7389"/>
<stop offset="0.64526" stop-color="#DC6B8C"/>
<stop offset="0.915" stop-color="#7953A9"/>
</radialGradient>
</defs>
</svg>

<svg width="32" height="32" fill="none" xmlns="http://www.w3.org/2000/svg"><path fill="#fff" d="M0 0h32v32H0z"/><path d="M16 19.52c9.457 0 14.455-2.475 14.844-2.677.013-.008.018-.02.023-.033.016-.267.026-.535.026-.807 0-.271-.01-.54-.026-.806-.002-.013-.008-.028-.023-.034-.389-.202-5.387-2.678-14.844-2.678-9.458 0-14.455 2.474-14.844 2.676-.013.008-.018.02-.023.033-.016.269-.026.535-.026.807 0 .271.01.54.026.806.002.013.007.028.023.033.389.203 5.386 2.68 14.844 2.68z" fill="url(#paint0_radial)"/><path d="M16 6.573c-5.953 0-10.134.98-12.512 1.757a13.685 13.685 0 00-2.087 4.867.04.04 0 00.039.005c1.216-.563 6.1-2.543 14.56-2.543 8.459 0 13.344 1.98 14.56 2.543a.04.04 0 00.038-.005 13.705 13.705 0 00-2.086-4.867C26.13 7.554 21.952 6.573 16 6.573z" fill="url(#paint1_radial)"/><path d="M5.426 25.973c2.699 2.588 6.44 4.19 10.574 4.19 4.135 0 7.875-1.602 10.574-4.19-2.468.622-5.994 1.2-10.574 1.2s-8.106-.578-10.574-1.2z" fill="url(#paint2_radial)"/><path d="M5.426 6.028C8.125 3.44 11.866 1.838 16 1.838c4.135 0 7.875 1.602 10.574 4.19-2.468-.622-5.994-1.2-10.574-1.2s-8.106.578-10.574 1.2z" fill="url(#paint3_radial)"/><path d="M16 25.389c-5.953 0-10.134-.98-12.512-1.756a13.685 13.685 0 01-2.087-4.867.04.04 0 01.039-.005c1.216.563 6.1 2.542 14.56 2.542 8.459 0 13.344-1.98 14.56-2.543a.04.04 0 01.038.006 13.705 13.705 0 01-2.086 4.867c-2.381.778-6.56 1.756-12.512 1.756z" fill="url(#paint4_radial)"/><defs><radialGradient id="paint0_radial" cx="0" cy="0" r="1" gradientUnits="userSpaceOnUse" gradientTransform="rotate(11.066 -68.654 -31.599) scale(41.3487)"><stop stop-color="#FEAE6F"/><stop offset=".316" stop-color="#FF9B73"/><stop offset=".631" stop-color="#D66F8D"/><stop offset=".855" stop-color="#8E54A5"/><stop offset=".991" stop-color="#6050B0"/></radialGradient><radialGradient id="paint1_radial" cx="0" cy="0" r="1" gradientUnits="userSpaceOnUse" gradientTransform="rotate(9.144 -68.147 27.72) scale(37.8607 22.8963)"><stop offset=".021" stop-color="#FEAE6F"/><stop offset=".497" stop-color="#D66F8D"/><stop offset=".795" stop-color="#8E54A5"/><stop offset=".984" stop-color="#7652AB"/></radialGradient><radialGradient id="paint2_radial" cx="0" cy="0" r="1" gradientUnits="userSpaceOnUse" gradientTransform="translate(10.675 19.24) scale(17.7131)"><stop offset=".071" stop-color="#FF9B73"/><stop offset=".261" stop-color="#F4A575"/><stop offset=".368" stop-color="#EE977B"/><stop offset=".57" stop-color="#DF7389"/><stop offset=".607" stop-color="#DC6B8C"/><stop offset=".612" stop-color="#DA6B8D"/><stop offset=".731" stop-color="#B06099"/><stop offset=".839" stop-color="#9259A2"/><stop offset=".931" stop-color="#8055A7"/><stop offset=".996" stop-color="#7953A9"/></radialGradient><radialGradient id="paint3_radial" cx="0" cy="0" r="1" gradientUnits="userSpaceOnUse" gradientTransform="rotate(1.325 -491.65 275.1) scale(22.152)"><stop offset=".109" stop-color="#FEAE6F"/><stop offset=".391" stop-color="#FEAE6F"/><stop offset=".641" stop-color="#DF7389"/><stop offset=".907" stop-color="#B56398"/><stop offset=".996" stop-color="#7852AA"/></radialGradient><radialGradient id="paint4_radial" cx="0" cy="0" r="1" gradientUnits="userSpaceOnUse" gradientTransform="rotate(4.712 -235.086 -170.104) scale(46.7544)"><stop offset=".071" stop-color="#FF9B73"/><stop offset=".39" stop-color="#F4A575"/><stop offset=".589" stop-color="#DF7389"/><stop offset=".645" stop-color="#DC6B8C"/><stop offset=".915" stop-color="#7953A9"/></radialGradient></defs></svg>
